dist/svgs/unicons/line/processor.svg

<svg xmlns="http://www.w3.org/2000/svg" viewBox="0 0 24 24"><path d="M14 9h-4a1 1 0 00-1 1v4a1 1 0 001 1h4a1 1 0 001-1v-4a1 1 0 00-1-1zm-1 4h-2v-2h2zm8 0a1 1 0 000-2h-2V9h2a1 1 0 000-2h-2.18A3 3 0 0017 5.18V3a1 1 0 00-2 0v2h-2V3a1 1 0 00-2 0v2H9V3a1 1 0 00-2 0v2.18A3 3 0 005.18 7H3a1 1 0 000 2h2v2H3a1 1 0 000 2h2v2H3a1 1 0 000 2h2.18A3 3 0 007 18.82V21a1 1 0 002 0v-2h2v2a1 1 0 002 0v-2h2v2a1 1 0 002 0v-2.18A3 3 0 0018.82 17H21a1 1 0 000-2h-2v-2zm-4 3a1 1 0 01-1 1H8a1 1 0 01-1-1V8a1 1 0 011-1h8a1 1 0 011 1z"/></svg>

<svg xmlns="http://www.w3.org/2000/svg" viewBox="0 0 24 24"><path d="M14,9H10a1,1,0,0,0-1,1v4a1,1,0,0,0,1,1h4a1,1,0,0,0,1-1V10A1,1,0,0,0,14,9Zm-1,4H11V11h2Zm8,0a1,1,0,0,0,0-2H19V9h2a1,1,0,0,0,0-2H18.82A3,3,0,0,0,17,5.18V3a1,1,0,0,0-2,0V5H13V3a1,1,0,0,0-2,0V5H9V3A1,1,0,0,0,7,3V5.18A3,3,0,0,0,5.18,7H3A1,1,0,0,0,3,9H5v2H3a1,1,0,0,0,0,2H5v2H3a1,1,0,0,0,0,2H5.18A3,3,0,0,0,7,18.82V21a1,1,0,0,0,2,0V19h2v2a1,1,0,0,0,2,0V19h2v2a1,1,0,0,0,2,0V18.82A3,3,0,0,0,18.82,17H21a1,1,0,0,0,0-2H19V13Zm-4,3a1,1,0,0,1-1,1H8a1,1,0,0,1-1-1V8A1,1,0,0,1,8,7h8a1,1,0,0,1,1,1Z"/></svg>
